X:10
T:Yr Hen Folgan - The Old Leather Bag
M:3/4
L:1/4
Q:60
C:John Tose
R:Waltz
K:G
G/2F/2 | E F G | F E ^D | E F G | F2 B | B G E | A F =D | D G F | E2 :||
G/2A/2 | B>c B | B A G | A/2B/2 c/2d/2 c/2B/2 | A2 B/2A/2 | G B d | d c
B | A>B G | F E D | B>c B | B A G |E F G | F2 B | B G E | A F D | D G F
| E4 ||
